img/airbnb.svg

<svg width="96" height="30" viewBox="0 0 96 30" fill="none" xmlns="http://www.w3.org/2000/svg">
<path fill-rule="evenodd" clip-rule="evenodd" d="M27.4149 21.238L27.4149 21.2381C27.8448 22.3333 27.9403 23.3809 27.797 24.4285C27.4627 26.619 26.0298 28.5238 23.9284 29.3809C23.1642 29.7143 22.3522 29.8571 21.4925 29.8571C21.2537 29.8571 20.9672 29.8571 20.7284 29.8095C19.7254 29.7143 18.7224 29.3809 17.7194 28.8095C16.5254 28.1428 15.3313 27.1428 13.994 25.7143C12.6567 27.1428 11.5104 28.1428 10.2687 28.8095C9.26567 29.3809 8.26268 29.6666 7.2597 29.8095C7.14029 29.8095 7.00895 29.8214 6.87761 29.8333C6.74626 29.8452 6.61492 29.8571 6.49552 29.8571C5.63581 29.8571 4.82387 29.7143 4.0597 29.3809C2.00596 28.5238 0.477606 26.6666 0.143278 24.4285C-5.99027e-06 23.3333 0.143278 22.2857 0.525367 21.2381C0.668648 20.8095 0.811928 20.4762 0.955209 20.1429L0.955218 20.1428C1.19402 19.619 1.43283 19.0952 1.62387 18.619L1.67164 18.5714C3.77313 14.0952 5.97014 9.57141 8.26268 5.09521L8.3582 4.90474C8.59701 4.47617 8.83582 3.99998 9.07462 3.52379C9.1389 3.42308 9.20318 3.32061 9.26814 3.21705L9.26827 3.21685C9.54113 2.78186 9.82598 2.32777 10.1731 1.90474C11.1761 0.761881 12.5134 0.0952148 13.994 0.0952148C15.4269 0.0952148 16.8119 0.761881 17.7672 1.95236C18.2448 2.47617 18.5791 3.0476 18.8657 3.57141C19.1045 4.0476 19.3433 4.52379 19.5821 4.95236L19.6776 5.14283C22.0179 9.61902 24.2149 14.1428 26.2687 18.619H26.3164C26.5074 19.0952 26.7462 19.6189 26.985 20.1427L26.9851 20.1428C27.1283 20.4761 27.2716 20.857 27.4149 21.2379L27.4149 21.238L27.4149 21.238ZM50.4836 7.57141C50.4836 8.66664 49.6239 9.52379 48.5254 9.52379C47.4269 9.52379 46.5672 8.66664 46.5672 7.57141C46.5672 6.47617 47.4269 5.61902 48.5254 5.61902C49.6716 5.66664 50.4836 6.52379 50.4836 7.57141ZM42.5075 11.4762V11.9524C42.5075 11.9524 41.6 10.7619 39.594 10.7619C36.3463 10.7619 33.8149 13.2381 33.8149 16.6666C33.8149 20.0476 36.3463 22.5714 39.594 22.5714C41.6 22.5714 42.5075 21.3333 42.5075 21.3333V21.8571C42.5075 22.0952 42.6985 22.2857 42.9373 22.2857H45.3731V11.0476H42.9373C42.6507 11.0476 42.5075 11.2381 42.5075 11.4762ZM40.0716 19.8571C41.1701 19.8571 42.0776 19.2857 42.5075 18.619V14.619C42.0776 14 41.1224 13.3809 40.0716 13.3809C38.1612 13.3809 36.6806 14.5714 36.6806 16.619C36.6806 18.6666 38.1612 19.8571 40.0716 19.8571ZM49.9582 11.0476V22.2381H47.0925V11.0476H49.9582ZM87.0209 11.9524C87.0209 11.9524 87.9761 10.7619 89.9343 10.7619C93.1821 10.7619 95.7134 13.2381 95.7134 16.619C95.7134 20 93.1821 22.5238 89.9343 22.5238C87.9284 22.5238 87.0209 21.2857 87.0209 21.2857V21.8095C87.0209 22.0476 86.8298 22.2381 86.591 22.2381H84.1552V5.66664H87.0209V11.9524ZM89.4567 19.8095C88.3582 19.8095 87.4985 19.2381 87.0209 18.5714V14.5714C87.4507 13.9524 88.406 13.3333 89.4567 13.3333C91.3672 13.3333 92.8478 14.5238 92.8478 16.5714C92.8478 18.619 91.3672 19.8095 89.4567 19.8095ZM82.6746 22.2857V15.619C82.6746 13.7143 82.2925 12.6666 81.3373 11.8571C80.4776 11.1428 79.4269 10.7619 78.1851 10.7619C77.0866 10.7619 75.9881 11.0952 75.1284 11.9524V11.4762C75.1284 11.2381 74.9373 11.0476 74.6985 11.0476H72.406V22.2857H75.2716V14.4762C75.8448 13.8095 76.7522 13.3809 77.6119 13.3809C79.1881 13.3809 79.809 14.0952 79.809 15.9524V22.2857H82.6746ZM65.4328 10.7619C63.4746 10.7619 62.5194 11.9524 62.5194 11.9524V5.66664H59.6537V22.2381H62.0895C62.3284 22.2381 62.5194 22.0476 62.5194 21.8095V21.2857C62.5194 21.2857 63.4269 22.5238 65.4328 22.5238C68.6806 22.5238 71.2119 20 71.2119 16.619C71.2597 13.2381 68.7284 10.7619 65.4328 10.7619ZM62.5194 18.5714C62.997 19.2381 63.8567 19.8095 64.9552 19.8095C66.8657 19.8095 68.3463 18.619 68.3463 16.5714C68.3463 14.5238 66.8657 13.3333 64.9552 13.3333C63.9045 13.3333 62.9492 13.9524 62.5194 14.5714V18.5714ZM57.2179 10.7619C58.0776 10.7619 58.5552 10.9047 58.5552 10.9047V13.5714C58.5552 13.5714 56.1672 12.7619 54.6866 14.4762V22.2857H51.8209V11.0476H54.2567C54.4955 11.0476 54.6866 11.2381 54.6866 11.4762V11.9524C55.1642 11.3333 56.3104 10.7619 57.2179 10.7619ZM13.9463 22.7619C12.3224 20.7143 11.2716 18.8095 10.9373 17.2381C10.794 16.5714 10.7463 15.9524 10.8418 15.4285C10.8895 14.9524 11.0806 14.5238 11.3194 14.1905C11.8925 13.3809 12.8478 12.8571 13.9463 12.8571C15.0448 12.8571 16.0478 13.3333 16.5731 14.1905C16.8119 14.5714 17.003 14.9524 17.0507 15.4285C17.1463 15.9524 17.0985 16.5714 16.9552 17.2381C16.6209 18.8095 15.5701 20.7143 13.9463 22.7619ZM23.1642 27.6666C24.6448 27.0952 25.6955 25.7619 25.8866 24.1905C25.9821 23.3809 25.8866 22.6666 25.7433 21.9047C25.6916 21.7501 25.6259 21.5954 25.5537 21.4256C25.4926 21.2817 25.4269 21.1271 25.3612 20.9524C25.2418 20.7143 25.1343 20.4643 25.0269 20.2143C24.9194 19.9643 24.8119 19.7143 24.6925 19.4762V19.4285C22.6388 15 20.4418 10.4762 18.1492 6.0476L18.0537 5.85712C17.8149 5.38093 17.5761 4.90474 17.3373 4.47617C17.0985 3.99998 16.8119 3.52379 16.4776 3.14283C15.8567 2.42855 14.997 2.0476 14.0895 2.0476C13.1821 2.0476 12.3224 2.42855 11.7015 3.14283C11.3672 3.57141 11.0806 3.99998 10.8418 4.47617C10.603 4.95236 10.3642 5.42855 10.1254 5.85712L10.0298 6.0476C7.68955 10.4762 5.49253 15 3.4388 19.4285L3.39104 19.4762C3.15223 19.9524 2.91343 20.4762 2.72238 20.9524L2.72237 20.9524C2.57909 21.2857 2.43581 21.619 2.34029 21.9047C2.00596 22.7619 1.9582 23.4762 2.05373 24.2381C2.24477 25.7619 3.29552 27.0952 4.77611 27.7143C5.44477 27.9524 6.20895 28.0952 7.02089 28C7.78507 27.9047 8.54925 27.6666 9.31343 27.2381C10.3642 26.619 11.4627 25.7143 12.7045 24.3333C10.7463 21.9047 9.50447 19.6666 9.07462 17.7143C8.83581 16.8095 8.78805 15.9524 8.93134 15.1905C9.07462 14.4285 9.31343 13.7619 9.74328 13.1428C10.6507 11.8571 12.2269 11.0476 13.9463 11.0476C15.6657 11.0476 17.2418 11.8095 18.1492 13.1428C18.5791 13.7619 18.8179 14.4285 18.9612 15.1905C19.0567 15.9524 19.0089 16.8095 18.8179 17.7143C18.3403 19.6666 17.1463 21.8571 15.1881 24.2857C16.4298 25.6666 17.4806 26.5714 18.5791 27.1905C19.391 27.619 20.1075 27.8571 20.8716 27.9524C21.6836 28.0476 22.4478 27.9524 23.1642 27.6666Z" fill="white"/>
</svg>

<svg width="96" height="30" fill="none" xmlns="http://www.w3.org/2000/svg"><path fill-rule="evenodd" clip-rule="evenodd" d="M27.415 21.238a6.21 6.21 0 0 1 .382 3.19c-.334 2.191-1.767 4.096-3.869 4.953-.764.333-1.576.476-2.436.476-.238 0-.525 0-.764-.047-1.003-.096-2.006-.43-3.009-1-1.194-.667-2.388-1.667-3.725-3.096-1.337 1.429-2.484 2.429-3.725 3.096-1.003.57-2.006.857-3.01 1-.119 0-.25.011-.381.023-.132.012-.263.024-.382.024-.86 0-1.672-.143-2.436-.476-2.054-.857-3.582-2.714-3.917-4.953-.143-1.095 0-2.142.382-3.19.144-.428.287-.762.43-1.095.239-.524.478-1.048.669-1.524l.048-.048c2.101-4.476 4.298-9 6.59-13.476l.096-.19c.239-.429.478-.905.717-1.381l.193-.307c.273-.435.558-.89.905-1.312 1.003-1.143 2.34-1.81 3.821-1.81 1.433 0 2.818.667 3.773 1.857.478.524.812 1.096 1.099 1.62.239.476.477.952.716 1.38l.096.19c2.34 4.477 4.537 9 6.59 13.477h.048c.191.476.43 1 .669 1.524.143.333.287.714.43 1.095ZM50.484 7.571c0 1.096-.86 1.953-1.959 1.953a1.934 1.934 0 0 1-1.958-1.953c0-1.095.86-1.952 1.958-1.952 1.147.048 1.959.905 1.959 1.952Zm-7.977 3.905v.476s-.907-1.19-2.913-1.19c-3.248 0-5.78 2.476-5.78 5.905 0 3.38 2.532 5.904 5.78 5.904 2.006 0 2.913-1.238 2.913-1.238v.524c0 .238.192.429.43.429h2.436V11.048h-2.436c-.286 0-.43.19-.43.428Zm-2.435 8.381c1.098 0 2.006-.571 2.435-1.238v-4c-.43-.619-1.385-1.238-2.435-1.238-1.91 0-3.391 1.19-3.391 3.238s1.48 3.238 3.39 3.238Zm9.886-8.81v11.191h-2.865v-11.19h2.865Zm37.063.905s.955-1.19 2.913-1.19c3.248 0 5.78 2.476 5.78 5.857 0 3.381-2.532 5.905-5.78 5.905-2.006 0-2.913-1.238-2.913-1.238v.523a.427.427 0 0 1-.43.43h-2.436V5.666h2.866v6.285Zm2.436 7.857a2.994 2.994 0 0 1-2.436-1.238v-4c.43-.619 1.385-1.238 2.436-1.238 1.91 0 3.39 1.19 3.39 3.238s-1.48 3.238-3.39 3.238Zm-6.782 2.477v-6.667c0-1.905-.382-2.952-1.338-3.762-.86-.714-1.91-1.095-3.152-1.095-1.098 0-2.197.333-3.057 1.19v-.476a.427.427 0 0 0-.43-.428h-2.292v11.238h2.866v-7.81c.573-.667 1.48-1.095 2.34-1.095 1.576 0 2.197.714 2.197 2.571v6.334h2.866ZM65.433 10.762c-1.958 0-2.914 1.19-2.914 1.19V5.667h-2.865v16.571h2.435c.24 0 .43-.19.43-.428v-.524s.908 1.238 2.914 1.238c3.248 0 5.779-2.524 5.779-5.905.048-3.38-2.484-5.857-5.78-5.857Zm-2.914 7.81a2.994 2.994 0 0 0 2.436 1.238c1.91 0 3.391-1.191 3.391-3.239 0-2.047-1.48-3.238-3.39-3.238-1.052 0-2.007.62-2.437 1.238v4Zm-5.301-7.81c.86 0 1.337.143 1.337.143v2.666s-2.388-.81-3.868.905v7.81H51.82V11.048h2.436c.239 0 .43.19.43.428v.476c.477-.619 1.623-1.19 2.53-1.19Zm-43.272 12c-1.624-2.048-2.674-3.953-3.009-5.524-.143-.667-.19-1.286-.095-1.81.047-.476.239-.904.477-1.238a3.192 3.192 0 0 1 2.627-1.333c1.099 0 2.102.476 2.627 1.334.239.38.43.761.478 1.237.095.524.048 1.143-.096 1.81-.334 1.572-1.385 3.476-3.009 5.524Zm9.218 4.905a4.288 4.288 0 0 0 2.723-3.477c.095-.81 0-1.523-.144-2.285a6.567 6.567 0 0 0-.19-.48c-.06-.143-.126-.298-.192-.473-.12-.238-.227-.488-.334-.738-.108-.25-.215-.5-.335-.738v-.047A344.693 344.693 0 0 0 18.15 6.047l-.095-.19a36.778 36.778 0 0 0-.717-1.382c-.238-.476-.525-.952-.86-1.333a3.137 3.137 0 0 0-2.388-1.095c-.907 0-1.767.38-2.388 1.095a7.93 7.93 0 0 0-.86 1.333c-.238.476-.477.953-.716 1.381l-.095.19C7.69 10.478 5.493 15 3.439 19.43l-.048.047c-.239.476-.478 1-.669 1.476-.143.334-.286.667-.382.953a4.507 4.507 0 0 0-.286 2.333c.19 1.524 1.242 2.857 2.722 3.476.669.238 1.433.381 2.245.286a6.205 6.205 0 0 0 2.292-.762c1.051-.619 2.15-1.524 3.391-2.905-1.958-2.428-3.2-4.666-3.63-6.619-.238-.904-.286-1.762-.143-2.523.144-.763.382-1.43.812-2.048.908-1.286 2.484-2.095 4.203-2.095 1.72 0 3.296.761 4.203 2.095.43.619.669 1.285.812 2.047.096.762.048 1.62-.143 2.524-.478 1.953-1.672 4.143-3.63 6.572 1.242 1.38 2.293 2.285 3.391 2.904.812.429 1.529.667 2.293.762.812.096 1.576 0 2.292-.285Z" fill="#fff"/></svg>
